!!!Schubert, Franz
!!!OTL: String Quartet D 804, mvmt. 2
**kern	**kern	**kern	**kern
*staff4	*staff3	*staff2	*staff1
*Icello	*Iviola	*Ivioln	*Ivioln
*clefF4	*clefF4	*clefG2	*clefG2
*k[]	*k[]	*k[]	*k[]
*M4/4	*M4/4	*M4/4	*M4/4
=1-	=1-	=1-	=1-
2C	[1G	8e	4ee
.	.	8g	.
.	.	8e	8ee
.	.	8g	8ee
2E	.	8e	4cc
.	.	8g	.
.	.	8e	4cc
.	.	8g	.
=2	=2	=2	=2
2D	1G_	8f	8cc
.	.	8g	8b
.	.	8f	8cc
.	.	8g	8dd
2BB	.	8d	4g
.	.	8f	.
.	.	8d	4g
.	.	8f	.
=3	=3	=3	=3
2C	2G]	8e	4ee
.	.	8g	.
.	.	8e	8ee
.	.	8g	8ee
2C#	2A	8e	4a
.	.	8g	.
.	.	8e	4a
.	.	8g	.
=4	=4	=4	=4
4D	2.A	8f	8a
.	.	8a	4dd
4E	.	8g	.
.	.	8a	8cc#
4F	.	8f	4dd
.	.	8a	.
4BB	4G	8g	8ee
.	.	8d	8ff
=5	=5	=5	=5
2C	[1G	8e	4ee
.	.	8g	.
.	.	8e	8ee
.	.	8g	8ee
2E	.	8e	4cc
.	.	8g	.
.	.	8e	4cc
.	.	8g	.
=6	=6	=6	=6
2D	1G]	8f	8cc
.	.	8g	8b
.	.	8f	8cc
.	.	8g	8dd
2BB	.	8d	4g
.	.	8f	.
.	.	8d	4g
.	.	8f	.
=7	=7	=7	=7
4C	[2.G	8e	4ee
.	.	8g	.
4D	.	8f	8b
.	.	8g	8b
2E	.	8g	8cc
.	.	8e	8gg
.	8G]	8c	8ee
.	8c	[8g	8cc
=8	=8	=8	=8
2D	4d	4g]	8cc
.	.	.	8b
.	4c	4f#	8b
.	.	.	8a
2G	2B	8g	4.g
.	.	8d	.
.	.	8B	.
.	.	8d	8g
=9	=9	=9	=9
2D	2d	[8G 8f	4ff
.	.	8G_ 8g	.
.	.	8G_ 8f	8ff
.	.	8G_ 8g	8ff
2BB	2B	8G_ 8f	4ee
.	.	8G_ 8g	.
.	.	8G_ 8f	4dd
.	.	8G] 8g	.
=10	=10	=10	=10
2C	2c	[8G 8e	4ee
.	.	8G_ 8g	.
.	.	8G_ 8e	8ee
.	.	8G] 8g	8ee
2AA	2A	[8A 8e	4dd
.	.	8A_ 8a	.
.	.	8A_ 8e	4cc
.	.	8A] 8a	.
=11	=11	=11	=11
4GG#	[4E 4G#	8B	4b
.	.	8e	.
4AA	4E_ 4A	8d 8e	8dd
.	.	8c 8e	8cc
4GG#	4E] 4G#	8B 8e	4b
.	.	8e	.
4FF	4F 4A	8A	4a
.	.	8d#	.
=12	=12	=12	=12
1EE	1E 1B	1e	1g# 1ee
=13	=13	=13	=13
2F	1A	8a	4ee-
.	.	8cc	.
.	.	8a	8ee-
.	.	8cc	8ee-
4.E-	.	8f	4cc
.	.	8a	.
.	.	8f	4cc
16D	.	8a	.
16C	.	.	.
=14	=14	=14	=14
2BB	2A-	8f	4dd
.	.	8a-	.
.	.	8f	8dd
.	.	8a-	8dd
2D	2G	8f	4b
.	.	8g	.
.	.	8f	4b
.	.	8g	.
=15	=15	=15	=15
4C	2.G	8e	4ee
.	.	8g	.
4D	.	8f	8b
.	.	8g	8b
4.E	.	8g	8cc
.	.	8e	8gg
.	8G	8g	8ee
16D	[8g	8c	8cc
16E	.	.	.
=16	=16	=16	=16
4F	8g]	4a	4a
.	8f	.	.
4G	8e	8g	4b
.	8d	8f	.
2C	2c	8e	4.cc
.	.	8g	.
.	.	8e	.
.	.	8g	8g
=17	=17	=17	=17
2D	2d	[8G 8f	4ff
.	.	8G_ 8g	.
.	.	8G_ 8f	8ff
.	.	8G_ 8g	8ff
2BB	2B	8G_ 8f	4ee
.	.	8G_ 8g	.
.	.	8G_ 8f	4dd
.	.	8G] 8g	.
=18	=18	=18	=18
2C	2c	[8G 8e	4ee
.	.	8G_ 8g	.
.	.	8G_ 8e	8ee
.	.	8G] 8g	8ee
2AA	2A	[8A 8e	4dd
.	.	8A_ 8a	.
.	.	8A_ 8e	4cc
.	.	8A] 8a	.
=19	=19	=19	=19
4GG#	[4E 4G#	8B	4b
.	.	8e	.
4AA	4E_ 4A	8d 8e	8dd
.	.	8c 8e	8cc
4GG#	4E] 4G#	8B 8e	4b
.	.	8e	.
4FF	4F 4A	8A	4a
.	.	8d#	.
=20	=20	=20	=20
1EE	1E 1B	1e	1g# 1ee
=21	=21	=21	=21
2F	1A	8a	4ee-
.	.	8cc	.
.	.	8a	8ee-
.	.	8cc	8ee-
4.E-	.	8f	4cc
.	.	8a	.
.	.	8f	4cc
16D	.	8a	.
16C	.	.	.
=22	=22	=22	=22
2BB	2A-	8f	4dd
.	.	8a-	.
.	.	8f	8dd
.	.	8a-	8dd
2D	2G	8f	4b
.	.	8g	.
.	.	8f	4b
.	.	8g	.
=23	=23	=23	=23
4C	2.G	8e	4ee
.	.	8g	.
4D	.	8f	8b
.	.	8g	8b
4.E	.	8g	8cc
.	.	8e	8gg
.	8G	8g	8ee
16D	[8g	8c	8cc
16E	.	.	.
=24	=24	=24	=24
4F	8g]	4a	4a
.	8f	.	.
4G	8e	8g	4b
.	8d	8f	.
2C	[2c	8e	2cc
.	.	8g	.
.	.	8e	.
.	.	8g	.
=25	=25	=25	=25
1r	1c]	8f	8b
.	.	8g	8cc
.	.	8f	8dd
.	.	8g	8b
.	.	8e	8cc
.	.	8g	8ee
.	.	8e	8aa
.	.	8g	8gg
=26	=26	=26	=26
2r	[4c 4a	8d	8gg
.	.	8a	8ff#
.	2c_ 2g	8d 8b	8ff
.	.	8f	8dd
4r	.	8e 8cc	2cc
.	.	8g	.
[4C	8c	8e	.
.	8E	8c	.
=27	=27	=27	=27
1C_	8F	8B	1r
.	8G	8c	.
.	8F	8d	.
.	8G	8B	.
.	8E	8c	.
.	8G	8e	.
.	8E	8a	.
.	8G	8g	.
=28	=28	=28	=28
1C_	8D	8g	1r
.	8A	8f#	.
.	8D 8B	8f	.
.	8F	8B	.
.	8E	2c	.
.	8G	.	.
.	8E	.	.
.	8G	.	.
=29	=29	=29	=29
8C]	8c	2r	4ee
8AA	8e	.	.
8EE	8c	.	4aa
8FF#	8A	.	.
2GG	8c	4d	2dd
.	8G	.	.
.	8B	4g	.
.	8G	.	.
=30	=30	=30	=30
8BB-	8B-	2d	4dd
8GG	8d	.	.
8DD	8B-	.	4gg
8EE	8G	.	.
2FF	8B-	4c	2cc
.	8F	.	.
.	8A	4f	.
.	8F	.	.
=31	=31	=31	=31
8AA	8A	2c	4cc
8FF	8c	.	.
8CC	8A	.	4ff
8DD	8F	.	.
4EE	8A	4r	4b
.	8E	.	.
4C#	8G	4A	4ee
.	[8g	.	.
=32	=32	=32	=32
4D	8g]	4d	4a
.	8d	.	.
4C	8f#	4a	[4dd
.	8d	.	.
4BB	8g	8g	8dd]
.	8d#	8f#	8b
8AA	8e	8a	8cc
8D	8f#	8c	8a
=33	=33	=33	=33
4GG	4g	8B	4g
.	.	8b	.
4r	8a	8cc	4r
.	8d	8a	.
2r	8g	8b	2r
.	8B	8g	.
.	8d	8a	.
.	8a	8dd	.
=34	=34	=34	=34
1r	8B	8g	8r
.	8g	8b	4dd
.	8a	8cc	.
.	8d	8a	4dd
.	8g	8b	.
.	8B	8g	8dd
.	8d	8a	4ff#
.	8a	8dd	.
=35	=35	=35	=35
4r	8B	8g	8gg
.	8g	8b	4dd
4f#	8a	8cc	.
.	8d	8a	4dd
4g	8g	8b	.
.	8B	8g	8dd
4c	8d	8a	4ff#
.	8a	8dd	.
=36	=36	=36	=36
8B	8g	8g	8gg
8r	8r	8r	8bb
4f#	4cc	4.dd	8ddd
.	.	.	8aa#
8g	8b	.	8bb
8r	8r	8r	8gg
4f#	4cc	[4dd	8ddd
.	.	.	8aa#
=37	=37	=37	=37
8g	8b	8dd]	8bb
8r	8r	8r	8gg
4e	4b	4.cc	8ccc
.	.	.	8gg#
8f#	8a	.	8aa
8r	8r	8r	8ff#
4d#	4a	[4b	8ccc
.	.	.	8bb
=38	=38	=38	=38
8e	8g	8b]	8gg
8r	8r	8r	8ee
4c#	4g	2a	8bb
.	.	.	8aa
4c	2d	.	8gg
.	.	.	8ff#
4B	.	8g	8gg
.	.	8g#	8bb
=39	=39	=39	=39
4c	8e	8a	8aa
.	8cc	8ee	8ee
4d	8b	8dd	8ff#
.	8a	8cc	8dd
4G	8g	8b	4gg
.	8B	8g	.
4D	8c	8a	4r
.	8d	8f#	.
=40	=40	=40	=40
8GG	8B-	8g	1r
8r	8r	8b-	.
4F#	4c 4d	8dd	.
.	.	8a	.
8G	8B- 8d	8b-	.
8r	8r	8g	.
4F#	4c 4d	8dd	.
.	.	8a	.
=41	=41	=41	=41
4G	8G 8d	8b-	8gg
.	8f	8b	8dd
8c	8e-	8cc	8ee-
8B-	8e	8g	8cc
8A-	8f	8a-	8ff
8F	8e-	8a	8cc
8B-	4d	8b-	8dd
8A-	.	8f	8b-
=42	=42	=42	=42
8G	8g	4b-	8ee-
8B-	8f	.	8dd
8E-	8e-	4g	8cc
8G	8d	.	8b-
8C	8c	4e-	8a
8E-	8B-	.	8g
8AA	8A	8c	8f#
8C#	8G	8B-	8e-
=43	=43	=43	=43
8D	8F#	8A	4.d
8FF#	8A	8c	.
8GG	8G	8B-	.
8BB-	8E	8G	8c#
8D	8F#	8A	4.d
8FF#	8A	8c	.
8GG	8G	8B-	.
8BB-	8E	8G	8c#
=44	=44	=44	=44
2.D	2.F#	2.A	8d
.	.	.	8f#
.	.	.	8a
.	.	.	8cc
.	.	.	8ee
.	.	.	8cc#
4r	4r	4r	8dd
.	.	.	8cc
=45	=45	=45	=45
8G	4g	4b	4b
8B	.	.	.
8d	8f#	8a	4r
16c	8g	8b	.
16B	.	.	.
8A	8e	8dd	2r
8c	8a	8cc	.
8d	8g	8b	.
8D	8f#	8a	.
=46	=46	=46	=46
8G	4g	4b	4.dd
8B	.	.	.
8d	8f#	8a	.
16c	8g	8b	8gg
16B	.	.	.
8A	8a	8dd	8ee
8c	8e	8cc	8aa
8d	8d	8b	8gg
8D	8c	8a	8ff#
=47	=47	=47	=47
8G	8B	4b	4.ddd
8B	8g	.	.
8d	4f#	8a	.
16c	.	8b	8ddd#
16B	.	.	.
8A	4a	8cc	8eee
8c	.	8ee	8ccc
8d	8dd	8dd	8bb
8D	8f#	8cc	8aa
=48	=48	=48	=48
4.d#	2f#	8b	4.bb
.	.	8dd#	.
.	.	8ff#	.
8e	.	8a#	8ccc#
4.d#	2f#	8b	4.bb
.	.	8dd#	.
.	.	8ff#	.
8e	.	8a#	8ccc#
=49	=49	=49	=49
8d#	8f#	8b	8bb
8d	8b	8ff#	8ff#
8c#	4e	8ee	8gg#
8B	.	8dd	8ee
8A	4a	8cc#	8aa
8c	.	8ee	8ee
4d	8b	8dd	16gg
.	.	.	16ff#
.	8a	8cc	16ee
.	.	.	16dd
=50	=50	=50	=50
8e	8g	8b	8gg
8BB	8A-	8f	8dd
8C	8G	8e	8ee
8D	8d	8c	8f#
4G	8d	8B	4g
.	8B	8g	.
4D	8c	8a	4r
.	8d	8f#	.
=51	=51	=51	=51
4.D#	2F#	8B	4.b
.	.	8d#	.
.	.	8f#	.
8E	.	8A	16dd#
.	.	.	16cc#
4.D#	2F#	8B	4.b
.	.	8d#	.
.	.	8f#	.
8E	.	8A	16dd#
.	.	.	16cc#
=52	=52	=52	=52
8D#	8F#	8B	8b
8D	8B	8f#	8f#
8C#	4E	8e	8g#
8BB	.	8d	8e
8AA	4A	8c#	8a
8C	.	8e	8e
8D	8B	8d	8g
8D#	8A	8c	8f#
=53	=53	=53	=53
8E	8G	8B	8g
8D	8B	8f	8g#
8C	8c	8e	8a
8BB	8d	8g#	8b
8AA	8e	8a	8dd
8r	8r	8r	16cc
.	.	.	16r
8D	8c	8f#	8b
8r	8r	8r	16a
.	.	.	16r
=54	=54	=54	=54
[1GG	4B	4g	4g
.	4r	8g	4r
.	.	8g	.
.	2r	4d#	2r
.	.	4d#	.
=55	=55	=55	=55
1GG_	1r	2e	4b
.	.	.	8b
.	.	.	8b
.	.	2f	4g
.	.	.	4g
=56	=56	=56	=56
1GG]	4g	2e	2cc
.	8g	.	.
.	8g	.	.
.	4c	2f#	2ee-
.	4c	.	.
=57	=57	=57	=57
4GG	4B	[1g	4dd
8GG	4r	.	4r
8GG	.	.	.
4DD#	2r	.	2r
4DD#	.	.	.
=58	=58	=58	=58
2EE	4B	1g_	1r
.	8B	.	.
.	8B	.	.
2FF	4G	.	.
.	4G	.	.
=59	=59	=59	=59
2EE	2G	1g]	4cc
.	.	.	8cc
.	.	.	8cc
4EE-	8G	.	4gg
.	8c	.	.
4CC	8e-	.	4gg
.	8e-	.	.
=60	=60	=60	=60
2FF#	2d	[4.a	4ccc
.	.	.	8ccc
.	.	16a]	8ccc
.	.	16b	.
2GG	2f	4cc	4dd
.	.	4b	4gg
=61	=61	=61	=61
2C	4G	16e	4ee
.	.	16f	.
.	.	16e	.
.	.	16f	.
.	8G	16g	8ee
.	.	16a	.
.	8G	16g	8ee
.	.	16f	.
2E	4G	16e	4cc
.	.	16c	.
.	.	16e	.
.	.	16f	.
.	8G	16g	4cc
.	.	16a	.
.	8G	16g	.
.	.	16e	.
=62	=62	=62	=62
2D	4G	16f	8cc
.	.	16e	.
.	.	16d	8b
.	.	16e	.
.	8G	16f	8cc
.	.	16g	.
.	8G	16f	8dd
.	.	16e	.
2BB	4G	16d	4g
.	.	16e	.
.	.	16d	.
.	.	16e	.
.	8G	16f	4g
.	.	16g	.
.	8G	16f	.
.	.	16d	.
=63	=63	=63	=63
2C	4G	16e	4ee
.	.	16f	.
.	.	16e	.
.	.	16f	.
.	8G	16g	8ee
.	.	16a	.
.	8G	16g	8ee
.	.	16f	.
2C#	4A	16e	4a
.	.	16f	.
.	.	16e	.
.	.	16f	.
.	8A	16g	4a
.	.	16a	.
.	8A	16g	.
.	.	16e	.
=64	=64	=64	=64
4D	4A	16f	8a
.	.	16e	.
.	.	16f	4dd
.	.	16a	.
4E	8A	16g	.
.	.	16f#	.
.	8A	16g	8cc#
.	.	16a	.
4F	4A	16f	4dd
.	.	16e	.
.	.	16f	.
.	.	16a	.
4BB	8G	16g	8ee
.	.	16f	.
.	8G	16e	8ff
.	.	16d	.
=65	=65	=65	=65
2C	4G	16e	4ee
.	.	16f	.
.	.	16e	.
.	.	16f	.
.	8G	16g	8ee
.	.	16a	.
.	8G	16g	8ee
.	.	16f	.
2E	4G	16e	4cc
.	.	16c	.
.	.	16e	.
.	.	16f	.
.	8G	16g	4cc
.	.	16a	.
.	8G	16g	.
.	.	16e	.
=66	=66	=66	=66
2D	4G	16f	8cc
.	.	16e	.
.	.	16d	8b
.	.	16e	.
.	8G	16f	8cc
.	.	16g	.
.	8G	16f	8dd
.	.	16e	.
2BB	4G	16d	4g
.	.	16e	.
.	.	16d	.
.	.	16e	.
.	8G	16f	4g
.	.	16g	.
.	8G	16f	.
.	.	16d	.
=67	=67	=67	=67
4C	4G	16e	4ee
.	.	16g	.
.	.	16f	.
.	.	16e	.
4D	8G	16f	8b
.	.	16d	.
.	8G	16e	8b
.	.	16f	.
2E	4G	16g	8cc
.	.	16e	.
.	.	16g	8gg
.	.	16b	.
.	8G	16cc	8ee
.	.	16b	.
.	8c	16a	8cc
.	.	16g	.
=68	=68	=68	=68
2D	4c	16d	8cc
.	.	16e	.
.	.	16f#	8b
.	.	16g	.
.	8c 8d	16g	8b
.	.	16f#	.
.	8c 8d	16e	8a
.	.	16f#	.
2G	2B 2d	16g	4.g
.	.	16d	.
.	.	16B	.
.	.	16d	.
.	.	16g	.
.	.	16f#	.
.	.	16f	8g
.	.	16e	.
=69	=69	=69	=69
2D	4G	16f	4ff
.	.	16g	.
.	.	16a	.
.	.	16g	.
.	8G	16f	8ff
.	.	16g	.
.	8G	16f	8ff
.	.	16g	.
2BB	4G	16f	4ee
.	.	16g	.
.	.	16a	.
.	.	16g	.
.	8G	16f	4dd
.	.	16g	.
.	8G	16f	.
.	.	16g	.
=70	=70	=70	=70
2C	4G	16e	4ee
.	.	16g	.
.	.	16a	.
.	.	16g	.
.	8G	16e	8ee
.	.	16g	.
.	8G	16e	8ee
.	.	16g	.
2AA	4A	16e	4dd
.	.	16a	.
.	.	16b	.
.	.	16a	.
.	8E	16e	4cc
.	.	16a	.
.	8E	16e	.
.	.	16c	.
=71	=71	=71	=71
4GG#	4E	16B	4b
.	.	16e	.
.	.	16d#	.
.	.	16e	.
4AA	8E	16c	8dd
.	.	16e	.
.	8E	16d#	8cc
.	.	16e	.
4GG#	4E	16B	4b
.	.	16e	.
.	.	16d#	.
.	.	16e	.
4FF	4F 4A	16d	4a
.	.	16c	.
.	.	16B	.
.	.	16A	.
=72	=72	=72	=72
1EE	1E 1B	1G#	1g# 1ee
=73	=73	=73	=73
2F	4F 4A	16a	4ee-
.	.	16g#	.
.	.	16a	.
.	.	16g#	.
.	8F	16a	8ee-
.	.	16b-	.
.	8F	16a	8ee-
.	.	16g	.
4.E-	4F 4A	16f	4cc
.	.	16g	.
.	.	16f	.
.	.	16g	.
.	8F	16a	4cc
.	.	16g#	.
16D	8F	16a	.
16C	.	16f	.
=74	=74	=74	=74
2BB	4F 4A-	16f	4dd
.	.	16e	.
.	.	16f	.
.	.	16g	.
.	8F	16a-	8dd
.	.	16g	.
.	8F	16a-	8dd
.	.	16g	.
2D	4F 4G	16f	4b
.	.	16e	.
.	.	16f	.
.	.	16f#	.
.	8G	16g	4b
.	.	16a	.
.	8G	16g	.
.	.	16f	.
=75	=75	=75	=75
4C	4G	16e	4ee
.	.	16g	.
.	.	16f	.
.	.	16e	.
4D	8G	16f	8b
.	.	16d	.
.	8G	16e	8b
.	.	16f	.
4.E	4G	16g	8cc
.	.	16e	.
.	.	16g	8gg
.	.	16b	.
.	8G	16cc	8ee
.	.	16b	.
16D	[8g	16cc	8cc
16E	.	16g	.
=76	=76	=76	=76
4F	8g]	16a	4a
.	.	16A	.
.	8f	16f	.
.	.	16g	.
4G	16f	16a	4b
.	16e	16g	.
.	16e	16g	.
.	16d	16f	.
2C	4c	16e	4.cc
.	.	16d	.
.	.	16c	.
.	.	16d	.
.	4r	16e	.
.	.	16f	.
.	.	16e	8g
.	.	16g	.
=77	=77	=77	=77
2D	4G	16f	4ff
.	.	16g	.
.	.	16a	.
.	.	16g	.
.	8G	16f	8ff
.	.	16g	.
.	8G	16f	8ff
.	.	16g	.
2BB	4G	16f	4ee-
.	.	16g	.
.	.	16a-	.
.	.	16g	.
.	8G	16f	4dd
.	.	16g	.
.	8G	16f	.
.	.	16g	.
=78	=78	=78	=78
2C	4G	16e-	4ee-
.	.	16g	.
.	.	16a-	.
.	.	16g	.
.	8G	16e-	8ee-
.	.	16g	.
.	8G	16e-	8ee-
.	.	16g	.
2AA-	4A-	16e-	4dd
.	.	16a	.
.	.	16b-	.
.	.	16a	.
.	8E-	16e-	4cc
.	.	16a	.
.	8E-	16e-	.
.	.	16c	.
=79	=79	=79	=79
4GG	4E-	16B-	4b-
.	.	16e-	.
.	.	16d	.
.	.	16e-	.
4AA-	8E-	16c	8dd
.	.	16e-	.
.	8E-	16d	8cc
.	.	16e-	.
4GG	4E-	16B-	4b-
.	.	16e-	.
.	.	16d	.
.	.	16e-	.
4FF	4D 4B-	16B-	4b- 4aa-
.	.	16d	.
.	.	16f	.
.	.	16a-	.
=80	=80	=80	=80
1EE-	1E- 1B-	1B- 1g	1b- 1gg
=81	=81	=81	=81
2A-	4c	16cc	4gg-
.	.	16b	.
.	.	16cc	.
.	.	16b	.
.	8A-	16cc	8gg-
.	.	16dd-	.
.	8A-	16cc	8gg-
.	.	16b-	.
4.G-	4c	16a-	4ee-
.	.	16b-	.
.	.	16a-	.
.	.	16b-	.
.	8A-	16cc	4ee-
.	.	16b	.
16F	8A-	16cc	.
16E-	.	16g#	.
=82	=82	=82	=82
2D	4B	16a-	4ff
.	.	16g	.
.	.	16a-	.
.	.	16b-	.
.	8A-	16cc-	8ff
.	.	16b-	.
.	8A-	16cc-	8ff
.	.	16b-	.
2F	4B-	16a-	4dd
.	.	16g	.
.	.	16a-	.
.	.	16a	.
.	8B-	16b-	4dd
.	.	16cc	.
.	8B-	16b-	.
.	.	16a-	.
=83	=83	=83	=83
4E-	4B-	16g	4gg
.	.	16b-	.
.	.	16a-	.
.	.	16g	.
4F	8B-	16a-	8dd
.	.	16f	.
.	8B-	16g	8dd
.	.	16a-	.
4.G	4B-	16b-	8ee-
.	.	16g	.
.	.	16b-	8bb-
.	.	16dd	.
.	8B-	16ee-	8gg
.	.	16dd	.
16F	[8b-	16ee-	8ee-
16G	.	16b-	.
=84	=84	=84	=84
4A-	8b-]	16cc	4cc
.	.	16c	.
.	8a-	16a-	.
.	.	16b-	.
4B-	16a-	16cc	4dd
.	16g	16b-	.
.	16g	16b-	.
.	16f	16a-	.
4E-	16e-	4g	4.ee-
.	16G	.	.
.	16B-	.	.
.	16e-	.	.
8.EE-	[4g	16r	.
.	.	16G	.
.	.	16A	8g
32DD	.	16B-	.
32EE-	.	.	.
=85	=85	=85	=85
4FF	16g]	8A	4a
.	16e	.	.
.	8.f	8.a	.
4GG	.	.	4b
.	16e-	16g	.
.	16e-	16g	.
.	16d	16f	.
4AA-	16c	4e-	4.cc
.	16E-	.	.
.	16A-	.	.
.	16c	.	.
8.C	[4e-	16r	.
.	.	16e-	.
.	.	16f	8ee-
32BB-	.	16g-	.
32C	.	.	.
=86	=86	=86	=86
4D-	16e-]	8f	4ff
.	16c	.	.
.	16d-	8.ff	.
.	16dd-	.	.
4E-	16dd-	.	4gg
.	16cc	16ee-	.
.	16cc	16ee-	.
.	16b-	16dd-	.
4F	16a-	4cc	4.aa-
.	16c	.	.
.	16f	.	.
.	16a-	.	.
8.A-	[4cc	16r	.
.	.	16cc	.
.	.	16dd-	8ccc
32G	.	16ee-	.
32A-	.	.	.
=87	=87	=87	=87
4B-	16cc]	8dd-	4ddd-
.	16a	.	.
.	8.b-	8.ddd-	.
4c	.	.	4eee
.	16a-	16ccc	.
.	16a-	16ccc	.
.	16g	16bb-	.
16c	4f	4aa-	4fff
16d-	.	.	.
16d-	.	.	.
16e-	.	.	.
8f-	16a-	16ccc-	4ddd
.	16b-	16bb-	.
8F-	8b-	16bb-	.
.	.	16aa-	.
=88	=88	=88	=88
4E-	8e- 8b-	4gg	4eee-
.	4e-	.	.
8E-	.	4r	4r
8E-	[8e-	.	.
4AA	8e-]	4cc	4gg-
.	4e-	.	.
4AA	.	8cc	8gg-
.	[8e-	[8cc	8gg-
=89	=89	=89	=89
4D-	8e-]	8cc]	4ff
.	4e-	16b-	.
.	.	16a	.
8D-	.	8b-	4ff
8D-	[8e-	8cc	.
4GG	8e-]	8dd-	4ff-
.	4e-	8r	.
4GG	.	8dd-	8ff-
.	[8e-	[8dd-	8ff-
=90	=90	=90	=90
4C-	8e-]	8dd-]	4ee-
.	4e-	16cc-	.
.	.	16b-	.
8C-	.	8a-	4ee-
8C-	[8e-	8b-	.
4FF-	8e-]	8cc-	8aa-
.	4e-	8b-	8bb-
4FF-	.	4a-	8ccc-
.	8d	.	16bb-
.	.	.	16aa-
=91	=91	=91	=91
4EE-	4e-	4g 4b-	24eee-
.	.	.	24bb-
.	.	.	24gg
.	.	.	24ee-
.	.	.	24b-
.	.	.	24g
8EE-	4r	24g	8e-
.	.	24b-	.
.	.	24cc	.
8EE-	.	24dd	8eee-
.	.	24ee-	.
.	.	24ff	.
4EE-	24c	4gg-	4aa
.	24e-	.	.
.	24g-	.	.
.	24a	.	.
.	24cc	.	.
.	24ee-	.	.
24EE-	8dd-	8ff	8aa
24AA	.	.	.
24BB-	.	.	.
24C	8cc	8ee-	8aa
24D-	.	.	.
24D	.	.	.
=92	=92	=92	=92
4E-	4b-	4dd-	24ddd-
.	.	.	24bb-
.	.	.	24ff
.	.	.	24dd-
.	.	.	24b-
.	.	.	24f
8EE-	4r	24f	8d-
.	.	24a	.
.	.	24b-	.
8EE-	.	24cc	8ddd-
.	.	24dd-	.
.	.	24ee-	.
4EE-	24B-	4ff-	4gg
.	24d-	.	.
.	24f-	.	.
.	24g	.	.
.	24b-	.	.
.	24dd-	.	.
24EE-	8cc	8ee-	8gg
24GG	.	.	.
24AA-	.	.	.
24BB-	8b-	8dd-	8gg
24D	.	.	.
24E-	.	.	.
=93	=93	=93	=93
24EE	2g#	4b	4gg#
24GG#	.	.	.
24BB	.	.	.
24E	.	.	.
24G#	.	.	.
24B	.	.	.
4e	.	8b	24B
.	.	.	24e
.	.	.	24g#
.	.	8b	24b
.	.	.	24ee
.	.	.	24gg#
4E	4a	24B	4b 4bb
.	.	24d#	.
.	.	24f#	.
.	.	24b	.
.	.	24dd#	.
.	.	24ff#	.
8E	8g#	8ee	8b 8bb
8E	8f#	8dd#	8b 8bb
=94	=94	=94	=94
24EE	2g#	4ee	4b 4bb
24GG#	.	.	.
24BB	.	.	.
24E	.	.	.
24G#	.	.	.
24B	.	.	.
4e	.	8b	24B
.	.	.	24e
.	.	.	24g#
.	.	8b	24b
.	.	.	24ee
.	.	.	24gg#
4E	4a	24B	4b 4bb
.	.	24d#	.
.	.	24f#	.
.	.	24b	.
.	.	24dd#	.
.	.	24ff#	.
8E	8g#	8ee	8b 8bb
8E	8f#	8dd#	8b 8bb
=95	=95	=95	=95
2E	1g#	4.ee	4e 4ee
.	.	.	8ee
.	.	8b	8ee
2d	.	4cc	4ee
.	.	[4b	8ee
.	.	.	8ee
=96	=96	=96	=96
2c	1e	4b]	4ee
.	.	2a	8ee
.	.	.	8ee
2B	.	.	4ee
.	.	4g	8ee
.	.	.	8ee
=97	=97	=97	=97
[1B-	4d	[1g	4ee
.	4c#	.	8ee
.	.	.	8ee
.	4e	.	4dd
.	8e	.	4cc#
.	8e	.	.
=98	=98	=98	=98
1B-]	4d	1g_	4ee
.	4c#	.	8ee
.	.	.	8ee
.	4e	.	4dd
.	8e	.	4cc#
.	8e	.	.
=99	=99	=99	=99
2A	4e	4g]	4dd
.	8e	8g	4cc#
.	8e	8g	.
4A	4d	4f	8.cc#
.	.	.	16dd
4A-	8d	8f	8dd
.	8d	8f	16ee
.	.	.	16ff
=100	=100	=100	=100
4G	4c	4e	2.gg
8G	8c#	8e	.
8G	8c#	8e	.
2G	4.d	4.f	.
.	.	.	8g
.	8G	8d	16a
.	.	.	16b
=101	=101	=101	=101
4C	8E	8c	4cc
.	8c	8e	.
4r	8d	8f	4r
.	8G	8d	.
2r	8c	8e	2r
.	8E	8c	.
.	8G	8d	.
.	8d	8g	.
=102	=102	=102	=102
1r	8E	8c	8r
.	8c	8e	4g
.	8d	8f	.
.	8G	8d	4g
.	8c	8e	.
.	8E	8c	8g
.	8G	8d	4b
.	8d	8g	.
=103	=103	=103	=103
4r	8E	8c	8cc
.	8c	8e	4g
4B	8d	8f	.
.	8G	8d	4g
8.c	8c	8e	.
.	8E	8c	8g
32d	.	.	.
32e	.	.	.
4f	8G	8d	4b
.	8d	8g	.
=104	=104	=104	=104
8e	8c	8e	8cc
8r	8r	8r	8ee
4B	4f	4.g	8gg
.	.	.	8dd#
8c	8e	.	8ee
8r	8r	8r	8cc
4B	4f	[4g	8gg
.	.	.	8dd#
=105	=105	=105	=105
8c	8e	8g]	8ee
8r	8r	8r	8cc
4A	4e	4.f	8ff
.	.	.	8cc#
8B	8d	.	8dd
8r	8r	8r	8b
4G#	4d	[4e	8ff
.	.	.	8ee
=106	=106	=106	=106
8A	8c	8e]	8cc
8r	8r	8r	8a
4F#	4c	2d	8ee
.	.	.	8dd
4F	2G	.	8cc
.	.	.	8b
4E	.	8c	8cc
.	.	8c#	8ee
=107	=107	=107	=107
4F	8A	8d	8dd
.	8f	8a	8a
4G	8e	8g	8b
.	8d	8f	8g
4C	8c	8e	4cc
.	8e	8cc	.
4GG	8f	8dd	4r
.	8g	8b	.
=108	=108	=108	=108
8CC	8e-	8cc	1r
8r	8r	8ee-	.
4B	4f 4g	8gg	.
.	.	8dd	.
8c	8e- 8g	8ee-	.
8r	8r	8cc	.
4B	4f 4g	8gg	.
.	.	8dd	.
=109	=109	=109	=109
4c	8c 8g	8ee-	8ccc
.	8b-	8ee	8gg
8f	8a-	8ff	8aa-
8e-	8a	8cc	8ff
8d-	8b-	8dd-	8bb-
8B-	8a-	8dd	8ff
8e-	4g	8ee-	8gg
8d-	.	8b-	8ee-
=110	=110	=110	=110
8c	8cc	4ee-	8aa-
8e-	8b-	.	8gg
8A-	8a-	4cc	8ff
8c	8g	.	8ee-
8F	8f	4a-	8dd
8A-	8e-	.	8cc
8D	8d	8f	8b
8F#	8c	8e-	8a
=111	=111	=111	=111
8G	8B	8d	4.g
8BB	8d	8f	.
8C	8c	8e-	.
8E-	8A	8c	8f#
8G	8B	8d	4.g
8BB	8d	8f	.
8C	8c	8e-	.
8E-	8A	8c	8f#
=112	=112	=112	=112
2.G	2.B	2.d	8g
.	.	.	8b
.	.	.	8dd
.	.	.	8ff
.	.	.	8aa
.	.	.	8ff#
4r	4r	4r	8gg
.	.	.	8ff
=113	=113	=113	=113
1r	8c	4cc	4ee
.	8e	.	.
.	8g	8b	8dd
.	16f	8cc	8ee
.	16e	.	.
.	8d	8a	8gg
.	8f	8dd	8ff
.	8g	8cc	8ee
.	8G	8b	8dd
=114	=114	=114	=114
4AA	8c	4cc	[2cc
.	8d	.	.
8GG#	8e	4r	.
8AA	16g	.	.
.	16f	.	.
8C	2e	2r	8cc]
8BB-	.	.	8dd
8AA	.	.	8cc
8GG	.	.	8b-
=115	=115	=115	=115
4FF	8F	4f	4a
.	8A	.	.
4r	8c	8e	8g
.	16B-	8f	8a
.	16A	.	.
2r	8G	8d	8cc
.	8B-	8g	8b-
.	8c	8f	8a
.	8C	8e	8g
=116	=116	=116	=116
8r	4F	4f	4a
8D	.	.	.
8C#	8E	2a	2ff
8D	8F	.	.
8F	8A	.	.
8E	8G	.	.
8D	8F	4ff	4ddd
8C	8E	.	.
=117	=117	=117	=117
8BB	8D	8aa-	8fff
8C	8E	8gg	8eee
8D	8F	8ff	8ddd
8E	8G	8bb-	8ccc#
8F	8A	8aa	8eee
8r	8r	8r	16ddd
.	.	.	16r
8G	8f	8dd	8ccc
8r	8r	8r	16bb
.	.	.	16r
=118	=118	=118	=118
[1C	4e	4cc	4ccc
.	4r	8cc	4r
.	.	8cc	.
.	2r	4g#	2r
.	.	4g#	.
=119	=119	=119	=119
1C_	1r	2a	4ee
.	.	.	8ee
.	.	.	8ee
.	.	2b-	4cc
.	.	.	4cc
=120	=120	=120	=120
1C]	4cc	2a	2ff
.	8cc	.	.
.	8cc	.	.
.	4e-	2f#	2aa-
.	4e-	.	.
=121	=121	=121	=121
4GG	8e	8g	4gg
.	8cc	8ee	.
4r	8b	8dd	8gg
.	8cc	8ee	8gg
2r	8a	8gg	4gg
.	8dd	8ff	.
.	8cc	8ee	4gg
.	8b	8dd	.
=122	=122	=122	=122
4c	8cc	8cc	1r
.	8f	8a	.
8c	8e	8g	.
8c	8f	8a	.
4c	8d	8cc	.
.	8g	8b-	.
4c	8f	8a	.
.	8e	8g	.
=123	=123	=123	=123
8A	4f	4f	4a
8d	.	.	.
8c#	8e	4r	8a
8d	8f	.	8a
8c#	8a	2r	4a
8e	8g	.	.
8d	8f	.	4a
8c#	8e	.	.
=124	=124	=124	=124
4d	4d	4f	8a
.	.	.	8dd
4r	8d	8f	8cc#
.	8d	8f	8dd
4A	4d	4f	8ee
.	.	.	8dd
4A-	8d	8f	8.ee
.	8d	8f	.
.	.	.	16ff
=125	=125	=125	=125
4G	4c	4e	2.gg
8G	8c	8e	.
8G	8c	8e	.
2G	2d	2f	.
.	.	.	8g
.	.	.	16a
.	.	.	16b
=126	=126	=126	=126
4c	4c	4e	4cc
8c	8e	8g	4r
8c	8e	8g	.
4c	4f	4g	8b
.	.	.	8cc
8c	8f	8g	8dd
8c	8f	8g	8b
=127	=127	=127	=127
4c	4e	4g	8cc
.	.	.	8ee
8c	8e	8g	8aa
8c	8e	8g	8gg
4c	4d	4a	8gg
.	.	.	8ff#
8c	8d 8b	8g	8ff
8c	8f 8b	8g	8dd
=128	=128	=128	=128
4C	4e 4cc	4g	4cc
8C	8E	8G	4r
8C	8E	8G	.
4C	4F	4G	8B
.	.	.	8c
8C	8F	8G	8d
8C	8F	8G	8B
=129	=129	=129	=129
4C	4E	4G	8c
.	.	.	8e
8C	8E	8G	8a
8C	8E	8G	8g
4C	4D	4A	8g
.	.	.	8f#
8C	8D 8B	8G	8f
8C	8F 8B	8G	8d
=130	=130	=130	=130
8C	4E 4c	4e	4c
8AA	.	.	.
8EE	[4c	4a	4r
8FF#	.	.	.
2GG	8c]	4d	8ff
.	8B	.	8dd
.	4d	4f	8a
.	.	.	8b
=131	=131	=131	=131
8C	8c	4e	4cc
8AA	8E	.	.
8EE	4A	[4c	4r
8FF#	.	.	.
2GG	4D	8c]	8ff
.	.	8B	8dd
.	4F	4d	8a
.	.	.	8b
=132	=132	=132	=132
8C	4E	4c	4cc
8GG	.	.	.
8EE	4r	4r	4r
8GG	.	.	.
8C	4G	4e	4cc
8GG	.	.	.
8EE	4r	4r	4r
8GG	.	.	.
=133	=133	=133	=133
1CC	1G	1e	1cc
==	==	==	==
*-	*-	*-	*-
